X:1
T:Rakes of Kinsale, The
M:6/8
L:1/8
R:Jig
S:Joyce – Old Irish Folk Music and Songs (1909)
Z:AK/Fiddler’s Companion
K:Emin
E|GBG FAF|GEE E2F|GBG FAG|FDD DEF|
GFG AGA|Bde/f/ gfe|dBG AGF|GEE E2:|
|:D|G>AB/c/ dBG|BAB dBG|A>Bc/d/ ecA|cBc/d/ ecA|
G>AB/c/ dAd|egf/a/ gfe|dBG AGF|GEE E2:|
|:f|gbg afa|gee e2f|gbg fag|fdd def|
g/a/bg f/g/af|egf/a/ gfe|dBG AGF|GEE E2:|
|:a|gdB AGF|GEE E2f|gdB ABG|FDD DEF|
GFG AGB/c/|def gfe|dBG AGF|GEE E2:|

